!!!COM: Music21
!!!OTL: reel_Drag-Her-Round-The-Road
!!!OMV: reel_Drag-Her-Round-The-Road
**kern
*clefG2
*k[f#]
*e:
*M4/4
=1
8bL
8eJ
8eL
8dJ
4e
8gL
8eJ
=
4e
8gL
8eJ
8dL
8eJ
8gL
8aJ
=
8bL
8eJ
8eL
8dJ
4e
8dL
8eJ
=
8gL
8aJ
8bL
8gJ
4a
8gL
8aJ
=||
*M4/4
8bL
8eJ
8eL
8dJ
4e
8gL
8eJ
!!linebreak:original
=
4e
8gL
8eJ
8dL
8eJ
8gL
8aJ
=
8bL
8eJ
8eL
8dJ
4e
8dL
8eJ
=
8gL
8aJ
8bL
8gJ
4a
8bL
8aJ
=||
4.g
8f#
8gL
8bJ
8ddL
8bJ
=
4cc
8aL
8bJ
8ccL
8ddJ
8eeL
8ddJ
=
4.b
8a
8gL
8bJ
8ddL
8eeJ
!!linebreak:original
=
8ddL
8bJ
8gL
8bJ
4a
8bL
8aJ
=
4.g
8f#
8gL
8bJ
8ddL
8bJ
=
4cc
8aL
8bJ
8ccL
8ddJ
8eeL
8ff#J
=
8ggL
8eeJ
8ddL
8bJ
4cc
8ggL
8eeJ
=
8ddL
8bJ
8gL
8bJ
4a
8gL
8aJ
=||
8bL
8eJ
8eL
8dJ
4e
8dL
8eJ
!!linebreak:original
=
8gL
8eJ
8dL
8BJ
8dL
8eJ
8gL
8aJ
=
8bL
8eJ
8eL
8dJ
4e
8dL
8eJ
=
8gL
8aJ
8bL
8gJ
4a
8gL
8aJ
=||
8bL
8eJ
8eL
8dJ
4e
8dL
8eJ
=
8gL
8eJ
8dL
8BJ
8dL
8eJ
8gL
8aJ
!!linebreak:original
=
8bL
8eJ
8eL
8dJ
4e
8dL
8eJ
=
8gL
8aJ
8bL
8gJ
4.a
8f#
=||
4.g
8f#
8gL
8bJ
8ddL
8bJ
=
8ccL
8bJ
8aL
8bJ
8ccL
8ddJ
8eeL
8ddJ
=
4b
8aL
8bJ
8gL
8bJ
8ddL
8bJ
=
8gL
8aJ
8bL
8gJ
4.a
8f#
!!linebreak:original
=
8dL
8gJ
8gL
8f#J
8gL
8bJ
8ddL
8bJ
=
8ccL
8bJ
8aL
8bJ
8ccL
8ddJ
8eeL
8aaJ
=
8ggL
8eeJ
8ddL
8bJ
8ccL
8eeJ
8ggL
8eeJ
=
8ddL
8bJ
8gL
8aJ
8bL
8aJ
4a
=||
*-
